X:1
T:The Connaught Rangers (2)
M:4/4
L:1/8
K:Bb
 FF G| C2 B,2 G, G,C D| G,2 F,3 FG B| AG FD C2D-F| G4 z| GF G| C2 B,3 G,C D|\
 G,2 F,4 BA| GF DC B,A, G, F,| G,3 F, G,| BB A| G2 ABc-BA-G| F D- D4 z D|\
 GG GAB-A GF| D G2 FG| GF G| C B,- B,3 G,C D| G, F,- F,4 BA| GF DC B,3 G,|\
 G, G, G, F, G,||
